kora/actions/scalable/pixelart-trace.svg

<svg xmlns="http://www.w3.org/2000/svg" style="fill-rule:evenodd;clip-rule:evenodd;stroke-linejoin:round;stroke-miterlimit:2" width="100%" height="100%" version="1.1" viewBox="0 0 16 16" xml:space="preserve">
 <defs>
  <style id="current-color-scheme" type="text/css">
   .ColorScheme-Text { color:#dfdfdf; } .ColorScheme-Highlight { color:#4285f4; } .ColorScheme-NeutralText { color:#ff9800; } .ColorScheme-PositiveText { color:#4caf50; } .ColorScheme-NegativeText { color:#f44336; }
  </style>
 </defs>
 <path style="fill:currentColor;fill-opacity:0.3;" class="ColorScheme-Text" d="M8,12l-1.897,0l-0,1l1.897,0l0,-1Zm1,0l-1,0l0,1l1,0l0,-1Zm0,-1l0,1l1,0l0,-1l-1,0Zm-3,0l-1,0l0,1l1,0l0,-1Zm4,0l1,0l0,-1l-1,0l0,1Z"/>
 <path style="fill:currentColor;" class="ColorScheme-Text" d="M5,14l0,1l6,0l0,-1l-6,0Zm-1,-1l0,1l1,0l0,-1l-1,0Zm7,1l1,0l0,-1l-1,0l0,1Zm-8,-2l0,1l1,0l0,-1l-1,0Zm9,1l1,0l0,-1l-1,0l0,1Zm-10,-2l0,1l1,0l0,-1l-1,0Zm11,1l1,0l0,-1l-1,0l0,1Zm-12,-6l1,0l0,5l-1,0l0,-5Zm13,1l1,0l0,4l-1,0l0,-4Zm-9,0l0,1l1,0l0,-1l-1,0Zm6,0l-2,0l0,1l2,0l0,-1Zm3,0l0,-2l-1,0l0,2l1,0Zm-9,-1l-1,0l0,1l1,0l0,-1Zm6,0l0,1l1,0l0,-1l-1,0Zm-2,1l0,-1l-1,0l0,1l1,0Zm-2,-1l-1,0l0,1l1,0l0,-1Zm-4,-2l-1,0l0,2l1,0l0,-2Zm2,1l0,1l1,0l0,-1l-1,0Zm4,0l0,1l2,0l0,-1l-2,0Zm4,0l0,-1l-1,0l0,1l1,0Zm-10,-2l0,1l1,0l0,-1l-1,0Zm-2,-2l0,1l1,0l0,1l1,0l0,-2l-2,0Zm3,2l1,0l0,-1l-1,0l0,1Zm6,-1l0,1l3,0l0,-1l1.094,0l0,-1l-3.094,0l0,1l-1,0Zm-5,0l5,0l0,-1l-5,0l0,1Z"/>
</svg>

<svg xmlns="http://www.w3.org/2000/svg" width="16" height="16" version="1.1">
 <defs>
  <style id="current-color-scheme" type="text/css">
   .ColorScheme-Text { color:#dfdfdf; } .ColorScheme-Highlight { color:#4285f4; }
  </style>
 </defs>
 <path style="opacity:0.3;fill:currentColor" class="ColorScheme-Text" d="M 7,9 V 10 H 8 V 9 Z M 8,10 V 11 H 9 V 10 Z M 9,11 V 12 H 10 V 11 Z M 10,11 H 11 V 10 H 10 Z M 7,10 H 6 V 11 H 7 Z M 6,11 H 5 V 12 H 6 Z"/>
 <path style="fill:currentColor" class="ColorScheme-Text" d="M 1,1 V 2 H 2 V 3 H 3 V 1 Z M 3,3 V 4 H 4 V 3 Z M 4,3 H 5 V 2 H 4 Z M 5,2 H 10 V 1 H 5 Z M 10,2 V 3 H 13 V 2 H 15 V 1 H 11 V 2 Z M 3,4 H 2 V 6 H 3 Z M 2,6 H 1 V 8 H 2 Z M 2,8 V 9 H 3 V 8 Z M 2,9 H 1 V 11 H 2 Z M 2,11 V 12 H 3 V 11 Z M 3,12 V 13 H 4 V 12 Z M 4,13 V 14 H 5 V 13 Z M 5,14 V 15 H 11 V 14 Z M 11,14 H 12 V 13 H 11 Z M 12,13 H 13 V 12 H 12 Z M 13,12 H 14 V 11 H 13 Z M 14,11 H 15 V 9 H 14 Z M 14,9 V 5 H 13 V 9 Z M 13,5 V 4 H 12 V 5 Z M 5,5 V 6 H 6 V 5 Z M 5,6 H 4 V 7 H 5 Z M 5,7 V 8 H 6 V 7 Z M 9,5 V 6 H 10 11 V 5 Z M 11,6 V 7 H 12 V 6 Z M 11,7 H 10 9 V 8 H 11 Z M 9,7 V 6 H 8 V 7 Z"/>
</svg>
